src/resources/svg/fiat-dao-logo.svg

<svg width="35" height="34" viewBox="0 0 35 34" fill="none" xmlns="http://www.w3.org/2000/svg">
    <path fill-rule="evenodd" clip-rule="evenodd" d="M24.0423 1.07729C21.944 0.356768 19.7399 -0.00732596 17.5214 0.000111685C15.2961 -0.00481479 13.0854 0.359179 10.9792 1.07729C8.91996 1.77319 7.01761 2.86704 5.38028 4.29666C3.72002 5.76587 2.38864 7.56904 1.47323 9.58822C0.45709 11.8724 -0.0446472 14.352 0.00351748 16.8516C-0.0473769 19.3416 0.454578 21.8118 1.47323 24.0845C2.39518 26.091 3.72593 27.883 5.38028 29.3456C7.01711 30.7745 8.91973 31.8664 10.9792 32.5589C13.0874 33.282 15.3017 33.6471 17.5305 33.6391C19.7464 33.6476 21.9478 33.2824 24.0423 32.5589C26.0877 31.8627 27.9773 30.7732 29.6046 29.3517C31.2659 27.8902 32.6012 26.0956 33.5239 24.0845C34.5436 21.8121 35.0466 19.3418 34.9966 16.8516C35.04 14.3509 34.5331 11.8712 33.5117 9.58822C32.5984 7.56778 31.2667 5.76418 29.6046 4.29666C27.9774 2.87224 26.088 1.77872 24.0423 1.07729ZM23.884 31.5974C21.8769 32.4624 19.7098 32.8938 17.5245 32.8632C17.5255 32.8632 17.5265 32.8632 17.5275 32.8632H17.5214C17.5224 32.8632 17.5234 32.8632 17.5245 32.8632C15.3393 32.8948 13.1721 32.4644 11.1648 31.6004C9.31259 30.7989 7.64174 29.6308 6.25281 28.1666C4.86388 26.7024 3.78561 24.9722 3.08291 23.0803C2.33213 21.0797 1.95565 18.958 1.97226 16.8211C1.95656 14.6873 2.33303 12.5688 3.08291 10.5711C3.78561 8.67917 4.86388 6.94902 6.25281 5.4848C7.64174 4.02057 9.31259 2.85253 11.1648 2.05101C13.1724 1.18344 15.3406 0.749989 17.5275 0.779088C19.7175 0.744428 21.89 1.17376 23.9023 2.03884C25.7419 2.8423 27.3985 4.01226 28.7709 5.47729C30.1306 6.95548 31.189 8.68467 31.8868 10.568C32.6387 12.5663 33.0153 14.6862 32.9974 16.8211C33.0155 18.9581 32.639 21.0801 31.8868 23.0803C31.1822 24.9608 30.1176 26.6859 28.7526 28.1589C27.3794 29.623 25.723 30.7928 23.884 31.5974ZM23.8627 12.05C24.407 12.6762 24.8107 13.4119 25.0464 14.2074L25.0373 14.2044C25.5443 15.938 25.5443 17.7806 25.0373 19.5142C24.8001 20.3064 24.3965 21.0388 23.8536 21.6625C23.2843 22.2964 22.5762 22.7901 21.7844 23.1048C20.9507 23.4547 19.6544 23.6282 17.5244 23.6282V23.4456C20.0895 23.4456 21.3402 22.4171 22.2956 21.1817C23.0746 20.1776 23.458 18.7444 23.458 16.876C23.458 15.0077 23.0685 13.5806 22.2956 12.5734C21.5227 11.5662 20.3512 10.9972 18.7841 10.9972H13.3922V16.3405H16.6207C16.9111 16.3423 17.1953 16.2564 17.4361 16.094C17.6819 15.931 17.8727 15.6977 17.9839 15.4246V15.4002H18.1634V18.2636H17.9839V18.2392C17.8719 17.9666 17.6812 17.7335 17.4361 17.5698C17.1953 17.4074 16.9111 17.3215 16.6207 17.3233H13.3922V21.9728C13.397 22.2594 13.487 22.538 13.6508 22.7731C13.815 23.0189 14.0493 23.2097 14.3233 23.3208L14.6793 23.4547V23.6312H10.1637V23.4547L10.5227 23.3208C10.7953 23.2087 11.0283 23.0181 11.1922 22.7731C11.3502 22.5361 11.4349 22.2577 11.4356 21.9728V12.0531C11.4356 11.3775 11.3534 11.1067 11.1891 10.8603C11.0261 10.6145 10.7928 10.4237 10.5197 10.3125L10.1606 10.1787V9.99913H18.7841C19.8177 10 20.8408 10.2069 21.7935 10.6077C22.5853 10.9224 23.2935 11.4161 23.8627 12.05Z" fill="url(#paint0_linear_476_2883)"/>
    <defs>
        <linearGradient id="paint0_linear_476_2883" x1="15.6316" y1="0" x2="15.6316" y2="33.6393" gradientUnits="userSpaceOnUse">
            <stop stop-color="#FF7474"/>
            <stop offset="1" stop-color="#FF4C8C"/>
        </linearGradient>
    </defs>
</svg>

<svg viewBox="0 0 35 34" width="35" height="34" fill="none" xmlns="http://www.w3.org/2000/svg"><path fill-rule="evenodd" clip-rule="evenodd" d="M24.042 1.077A19.873 19.873 0 0017.522 0a20.135 20.135 0 00-6.543 1.077 16.586 16.586 0 00-5.599 3.22 15.75 15.75 0 00-3.907 5.291 17.061 17.061 0 00-1.47 7.264c-.05 2.49.452 4.96 1.47 7.232a15.862 15.862 0 003.907 5.262 16.52 16.52 0 005.6 3.213 19.971 19.971 0 006.55 1.08 19.713 19.713 0 006.512-1.08 16.571 16.571 0 005.563-3.207 15.78 15.78 0 003.919-5.268 16.841 16.841 0 001.473-7.232 17.06 17.06 0 00-1.485-7.264 15.668 15.668 0 00-3.907-5.291 16.638 16.638 0 00-5.563-3.22zm-.158 30.52a15.52 15.52 0 01-6.36 1.266h.003-.006.003a15.518 15.518 0 01-6.36-1.263 14.959 14.959 0 01-8.081-8.52 17.43 17.43 0 01-1.11-6.259 17.42 17.42 0 011.11-6.25 14.958 14.958 0 018.082-8.52A15.519 15.519 0 0117.528.779c2.19-.035 4.362.395 6.374 1.26a14.773 14.773 0 014.869 3.438 15.447 15.447 0 013.116 5.091 17.343 17.343 0 011.11 6.253 17.364 17.364 0 01-1.11 6.26 15.444 15.444 0 01-3.134 5.078 14.818 14.818 0 01-4.869 3.438zm-.021-19.547a5.8 5.8 0 011.183 2.157l-.009-.003a9.458 9.458 0 010 5.31 5.81 5.81 0 01-1.183 2.149 5.523 5.523 0 01-2.07 1.442c-.833.35-2.13.523-4.26.523v-.182c2.566 0 3.816-1.029 4.772-2.264.779-1.004 1.162-2.438 1.162-4.306 0-1.868-.39-3.295-1.162-4.303-.773-1.007-1.945-1.576-3.512-1.576h-5.392v5.343h3.229a1.467 1.467 0 001.363-.916V15.4h.18v2.864h-.18v-.025a1.482 1.482 0 00-.548-.67 1.442 1.442 0 00-.815-.246h-3.229v4.65c.005.286.095.565.259.8.164.246.398.437.672.548l.356.134v.176h-4.515v-.176l.359-.134c.272-.112.505-.303.67-.548a1.45 1.45 0 00.243-.8v-9.92c0-.676-.083-.946-.247-1.193a1.467 1.467 0 00-.67-.547l-.358-.134v-.18h8.623c1.034.001 2.057.208 3.01.609.791.314 1.5.808 2.069 1.442z" fill="url(#prefix__paint0_linear_476_2883)"/><defs><linearGradient id="prefix__paint0_linear_476_2883" x1="15.632" y1="0" x2="15.632" y2="33.639" gradientUnits="userSpaceOnUse"><stop stop-color="#FF7474"/><stop offset="1" stop-color="#FF4C8C"/></linearGradient></defs></svg>
